X:1
T:Title
%%score { ( 1 3 ) | 2 }
L:1/8
M:4/4
K:G
V:1 treble nm="Grand Piano"
V:3 treble 
V:2 bass 
V:1
 z4 z2[Q:1/4=124] [B,DG]2 | [DGB]2 [B,DG]2 [DFA]2 [D=FB]2 | [CEG]2 [G,CE]2 [G,B,D]2 [B,DG]2 | %3
 B6 z2 |[M:3/4] A6 |[M:1/4] G2 |[M:4/4] B2 G2 [DFA]2 [D=FB]2 | [CEG]2 [G,CE]2 [G,B,D]2 [G,DG]2 | %8
 B6 z2 |[M:3/4] [B,DG]6 |[M:1/4] D2 |[M:4/4] GGGA B2 B2 | dedc B4 | [Ac][Bd][Ac][GB] [FA]4 | %14
 BcBA G2 D2 | GGGA B2 B2 | dedc B2 dd | c3 c B2 [FA]2 |[M:3/4] G6 |] %19
V:2
 z4 z2 G,2 | G,2 G,2 D,2 B,,2 | C,2 C,2 G,,2 G,,2 | [G,DG]2 [G,D]2[K:bass] [G,D]2 [G,B,]2 | %4
[M:3/4] [D,D]2 [D,D]2 [D,D]2 |[M:1/4] [G,B,]2 | %6
[M:4/4][K:treble] [G,DG]2 [G,B,D]2[K:bass] D,2 B,,2 | C,2 C,2 G,,2 B,,2 | %8
 [D,G,D]2 [D,G,]2 [D,G,]2 [D,CD]2 |[M:3/4] G,,6 |[M:1/4] [G,B,]2 | %11
[M:4/4][K:treble] [G,B,D][G,B,D][G,B,D][G,CD] [G,DG]2 [G,DG]2 | %12
 [G,B,G][G,CG][G,B,G][G,EG] [G,DG]4 | [D,D][D,D][D,D][D,D] [D,C]4 | %14
 [G,DG][G,EG][G,DG][G,CD] [G,B,D]2[K:bass] [G,B,]2 | %15
 [G,B,D][G,B,D][G,B,D][G,CD][K:treble] [G,DG]2 [G,DG]2 | %16
 [G,B,G][G,CG][G,B,G][G,EG] [G,DG]2 [B,DG][B,DG] | [CEA]3 [A,EA] [DG]2[K:bass] [D,C]2 | %18
[M:3/4] [G,B,]6 |] %19
V:3
 x8 | x8 | x8 | z2 G2 G2 G2 |[M:3/4] F2 F2 F2 |[M:1/4] x2 |[M:4/4] x8 | x8 | z2 D2 D2 A2 | %9
[M:3/4] x6 |[M:1/4] x2 |[M:4/4] x8 | x8 | x8 | x8 | x8 | x8 | x8 |[M:3/4] x6 |] %19

